; generated by Slic3r 1.2.9 on 2016-06-20 at 11:03:54

; external perimeters extrusion width = 0.40mm
; perimeters extrusion width = 0.35mm
; infill extrusion width = 0.40mm
; solid infill extrusion width = 0.40mm
; top infill extrusion width = 0.35mm

M107 ; disable fan
M104 S200 ; set temperature
G28 ; home all axes
G1 Z5 F5000 ; lift nozzle

M109 S200 ; wait for temperature to be reached
G21 ; set units to millimeters
G90 ; use absolute coordinates
M82 ; use absolute distances for extrusion
G92 E0 ; reset extrusion distance
G1 Z0.200 F10200.000 ; move to next layer (0)
G1 E-2.00000 F2400.00000 ; retract
G92 E0 ; reset extrusion distance
G1 X80.405 Y70.761 F10200.000 ; move to first skirt point
G1 E2.00000 F2400.00000 ; unretract
M204 S5000 ; adjust acceleration
G1 X82.785 Y69.120 E2.02921 F1800.000 ; skirt
G1 X85.523 Y68.189 E2.05842 ; skirt
G1 X87.500 Y68.001 E2.07849 ; skirt
G1 X112.500 Y68.001 E2.33107 ; skirt
G1 X115.364 Y68.399 E2.36028 ; skirt
G1 X118.010 Y69.564 E2.38949 F1800.000 ; skirt
G1 X120.239 Y71.405 E2.41870 ; skirt
G1 X121.880 Y73.785 E2.44791 ; skirt
G1 X122.811 Y76.523 E2.47712 ; skirt
G1 X122.999 Y78.500 E2.49719 ; skirt
G1 X122.999 Y82.500 E2.53761 ; skirt
G1 X122.909 Y83.870 E2.55148 ; skirt
G1 X122.875 Y84.129 E2.55412 ; skirt
G1 X122.622 Y85.420 E2.56741 ; skirt
G1 X113.054 Y121.937 E2.94881 ; skirt
G1 X112.597 Y123.294 E2.96327 ; skirt
G1 X112.298 Y124.018 E2.97118 ; skirt
G1 X110.927 Y126.391 E2.99887 ; skirt
G1 X110.449 Y127.014 E3.00680 ; skirt
G1 X108.513 Y128.950 E3.03447 ; skirt
G1 X107.891 Y129.427 E3.04239 ; skirt
G1 X105.518 Y130.798 E3.07008 ; skirt
G1 X104.794 Y131.097 E3.07799 ; skirt
G1 X102.147 Y131.807 E3.10568 ; skirt
G1 X101.370 Y131.909 E3.11359 ; skirt
G1 X98.630 Y131.909 E3.14128 ; skirt
G1 X97.853 Y131.807 E3.14919 ; skirt
G1 X95.206 Y131.097 E3.17688 ; skirt
G1 X94.482 Y130.798 E3.18480 ; skirt
G1 X92.109 Y129.427 E3.21249 ; skirt
G1 X91.487 Y128.950 E3.22040 ; skirt
G1 X89.550 Y127.013 E3.24809 ; skirt
G1 X89.073 Y126.391 E3.25600 ; skirt
G1 X87.702 Y124.018 E3.28369 ; skirt
G1 X87.403 Y123.294 E3.29160 ; skirt
G1 X86.946 Y121.937 E3.30607 ; skirt
G1 X77.378 Y85.420 E3.68747 ; skirt
G1 X77.125 Y84.130 E3.70075 ; skirt
G1 X77.091 Y83.870 E3.70339 ; skirt
G1 X77.001 Y82.500 E3.71727 ; skirt
G1 X77.001 Y78.500 E3.75768 ; skirt
G1 X77.399 Y75.636 E3.78689 ; skirt
G1 X78.564 Y72.990 E3.81610 ; skirt
G1 X80.358 Y70.819 E3.84456 ; skirt
M204 S4000 ; adjust acceleration
G1 X80.691 Y71.003 F10200.000 ; move to first skirt point
M204 S5000 ; adjust acceleration
G1 X80.756 Y70.926 E3.84557 F1800.000 ; skirt
G1 X83.121 Y69.352 E3.87428 ; skirt
G1 X85.831 Y68.497 E3.90299 ; skirt
G1 X87.500 Y68.358 E3.91991 ; skirt
G1 X112.500 Y68.358 E4.17249 ; skirt
G1 X115.313 Y68.756 E4.20120 ; skirt
G1 X117.906 Y69.919 E4.22991 F1800.000 ; skirt
G1 X120.074 Y71.756 E4.25861 ; skirt
G1 X121.648 Y74.121 E4.28732 ; skirt
G1 X122.503 Y76.831 E4.31603 ; skirt
G1 X122.642 Y78.500 E4.33295 ; skirt
G1 X122.642 Y82.500 E4.37336 ; skirt
G1 X122.555 Y83.824 E4.38676 ; skirt
G1 X122.521 Y84.082 E4.38940 ; skirt
G1 X122.276 Y85.329 E4.40224 ; skirt
G1 X112.708 Y121.847 E4.78364 ; skirt
G1 X112.267 Y123.157 E4.79761 ; skirt
G1 X111.968 Y123.881 E4.80552 ; skirt
G1 X110.644 Y126.174 E4.83227 ; skirt
G1 X110.166 Y126.796 E4.84020 ; skirt
G1 X108.295 Y128.667 E4.86693 ; skirt
G1 X107.674 Y129.144 E4.87484 ; skirt
G1 X105.381 Y130.468 E4.90159 ; skirt
G1 X104.657 Y130.767 E4.90950 ; skirt
G1 X102.100 Y131.453 E4.93625 ; skirt
G1 X101.324 Y131.555 E4.94416 ; skirt
G1 X98.676 Y131.555 E4.97091 ; skirt
G1 X97.900 Y131.453 E4.97883 ; skirt
G1 X95.343 Y130.767 E5.00557 ; skirt
G1 X94.619 Y130.468 E5.01349 ; skirt
G1 X92.326 Y129.144 E5.04023 ; skirt
G1 X91.705 Y128.667 E5.04815 ; skirt
G1 X89.833 Y126.795 E5.07490 ; skirt
G1 X89.356 Y126.174 E5.08281 ; skirt
G1 X88.032 Y123.881 E5.10956 ; skirt
G1 X87.733 Y123.157 E5.11747 ; skirt
G1 X87.292 Y121.847 E5.13144 ; skirt
G1 X77.724 Y85.329 E5.51284 ; skirt
G1 X77.479 Y84.083 E5.52567 ; skirt
G1 X77.445 Y83.824 E5.52831 ; skirt
G1 X77.358 Y82.500 E5.54172 ; skirt
G1 X77.358 Y78.500 E5.58213 ; skirt
G1 X77.756 Y75.687 E5.61084 ; skirt
G1 X78.919 Y73.094 E5.63954 ; skirt
G1 X80.642 Y71.060 E5.66648 ; skirt
M204 S4000 ; adjust acceleration
G1 X80.972 Y71.248 F10200.000 ; move to first skirt point
M204 S5000 ; adjust acceleration
G1 X81.105 Y71.094 E5.66853 F1800.000 ; skirt
G1 X83.456 Y69.590 E5.69672 ; skirt
G1 X87.500 Y68.715 E5.73852 ; skirt
G1 X112.500 Y68.715 E5.99111 ; skirt
G1 X115.262 Y69.113 E6.01930 ; skirt
G1 X117.800 Y70.275 E6.04750 F1800.000 ; skirt
G1 X119.906 Y72.105 E6.07569 ; skirt
G1 X121.410 Y74.456 E6.10388 ; skirt
G1 X122.285 Y78.500 E6.14569 ; skirt
G1 X122.285 Y82.500 E6.18610 ; skirt
G1 X122.201 Y83.777 E6.19903 ; skirt
G1 X122.167 Y84.036 E6.20167 ; skirt
G1 X121.931 Y85.239 E6.21405 ; skirt
G1 X112.363 Y121.756 E6.59545 ; skirt
G1 X111.937 Y123.021 E6.60893 ; skirt
G1 X111.638 Y123.744 E6.61684 ; skirt
G1 X110.361 Y125.956 E6.64265 ; skirt
G1 X109.883 Y126.579 E6.65058 ; skirt
G1 X108.078 Y128.384 E6.67637 ; skirt
G1 X107.456 Y128.861 E6.68428 ; skirt
G1 X105.244 Y130.138 E6.71009 ; skirt
G1 X104.521 Y130.437 E6.71800 ; skirt
G1 X102.054 Y131.099 E6.74381 ; skirt
G1 X101.277 Y131.201 E6.75172 ; skirt
G1 X98.723 Y131.201 E6.77753 ; skirt
G1 X97.946 Y131.099 E6.78544 ; skirt
G1 X95.479 Y130.437 E6.81125 ; skirt
G1 X94.756 Y130.138 E6.81916 ; skirt
G1 X92.544 Y128.861 E6.84496 ; skirt
G1 X91.922 Y128.384 E6.85288 ; skirt
G1 X90.116 Y126.578 E6.87868 ; skirt
G1 X89.639 Y125.956 E6.88660 ; skirt
G1 X88.362 Y123.744 E6.91240 ; skirt
G1 X88.063 Y123.021 E6.92031 ; skirt
G1 X87.637 Y121.756 E6.93379 ; skirt
G1 X78.069 Y85.239 E7.31520 ; skirt
G1 X77.833 Y84.037 E7.32757 ; skirt
G1 X77.799 Y83.777 E7.33022 ; skirt
G1 X77.715 Y82.500 E7.34315 ; skirt
G1 X77.715 Y78.500 E7.38356 ; skirt
G1 X78.113 Y75.738 E7.41176 ; skirt
G1 X79.275 Y73.200 E7.43995 ; skirt
G1 X80.923 Y71.304 E7.46533 ; skirt
M204 S4000 ; adjust acceleration
G1 X81.250 Y71.496 F10200.000 ; move to first skirt point
M204 S5000 ; adjust acceleration
G1 X81.455 Y71.266 E7.46844 F1800.000 ; skirt
G1 X83.789 Y69.834 E7.49611 ; skirt
G1 X87.500 Y69.073 E7.53438 ; skirt
G1 X112.500 Y69.073 E7.78697 ; skirt
G1 X115.210 Y69.470 E7.81464 ; skirt
G1 X117.691 Y70.630 E7.84231 F1800.000 ; skirt
G1 X119.734 Y72.455 E7.86998 ; skirt
G1 X121.166 Y74.789 E7.89766 ; skirt
G1 X121.927 Y78.500 E7.93593 ; skirt
G1 X121.927 Y82.500 E7.97634 ; skirt
G1 X121.847 Y83.730 E7.98880 ; skirt
G1 X121.813 Y83.989 E7.99144 ; skirt
G1 X121.586 Y85.148 E8.00337 ; skirt
G1 X112.017 Y121.666 E8.38477 ; skirt
G1 X111.608 Y122.884 E8.39776 ; skirt
G1 X111.308 Y123.608 E8.40567 ; skirt
G1 X110.077 Y125.739 E8.43053 ; skirt
G1 X109.600 Y126.362 E8.43846 ; skirt
G1 X107.860 Y128.101 E8.46331 ; skirt
G1 X107.239 Y128.577 E8.47122 ; skirt
G1 X105.108 Y129.808 E8.49609 ; skirt
G1 X104.384 Y130.108 E8.50400 ; skirt
G1 X102.007 Y130.745 E8.52887 ; skirt
G1 X101.231 Y130.847 E8.53678 ; skirt
G1 X98.769 Y130.847 E8.56164 ; skirt
G1 X97.993 Y130.745 E8.56956 ; skirt
G1 X95.616 Y130.108 E8.59442 ; skirt
G1 X94.892 Y129.808 E8.60233 ; skirt
G1 X92.761 Y128.577 E8.62720 ; skirt
G1 X92.139 Y128.100 E8.63511 ; skirt
G1 X90.399 Y126.360 E8.65997 ; skirt
G1 X89.923 Y125.739 E8.66789 ; skirt
G1 X88.692 Y123.608 E8.69275 ; skirt
G1 X88.392 Y122.884 E8.70066 ; skirt
G1 X87.983 Y121.666 E8.71365 ; skirt
G1 X78.414 Y85.148 E9.09505 ; skirt
G1 X78.187 Y83.990 E9.10698 ; skirt
G1 X78.153 Y83.730 E9.10962 ; skirt
G1 X78.073 Y82.500 E9.12208 ; skirt
G1 X78.073 Y78.500 E9.16249 ; skirt
G1 X78.470 Y75.790 E9.19017 ; skirt
G1 X79.630 Y73.309 E9.21784 ; skirt
G1 X81.200 Y71.551 E9.24164 ; skirt
M204 S4000 ; adjust acceleration
G1 X81.523 Y71.747 F10200.000 ; move to first skirt point
M204 S5000 ; adjust acceleration
G1 X81.804 Y71.442 E9.24583 F1800.000 ; skirt
G1 X84.121 Y70.083 E9.27297 ; skirt
G1 X87.500 Y69.430 E9.30774 ; skirt
G1 X112.500 Y69.430 E9.56033 ; skirt
G1 X115.157 Y69.827 E9.58747 ; skirt
G1 X117.580 Y70.986 E9.61461 F1800.000 ; skirt
G1 X119.558 Y72.804 E9.64175 ; skirt
G1 X120.917 Y75.121 E9.66889 ; skirt
G1 X121.570 Y78.500 E9.70366 ; skirt
G1 X121.570 Y82.500 E9.74408 ; skirt
G1 X121.493 Y83.684 E9.75606 ; skirt
G1 X121.459 Y83.943 E9.75870 ; skirt
G1 X121.240 Y85.058 E9.77018 ; skirt
G1 X111.672 Y121.575 E10.15158 ; skirt
G1 X111.278 Y122.748 E10.16408 ; skirt
G1 X110.978 Y123.471 E10.17199 ; skirt
G1 X109.794 Y125.522 E10.19591 ; skirt
G1 X109.316 Y126.144 E10.20384 ; skirt
G1 X107.643 Y127.817 E10.22775 ; skirt
G1 X107.022 Y128.294 E10.23566 ; skirt
G1 X104.971 Y129.478 E10.25958 ; skirt
G1 X104.248 Y129.778 E10.26750 ; skirt
G1 X101.960 Y130.391 E10.29142 ; skirt
G1 X101.184 Y130.493 E10.29933 ; skirt
G1 X98.816 Y130.493 E10.32325 ; skirt
G1 X98.040 Y130.391 E10.33117 ; skirt
G1 X95.752 Y129.778 E10.35509 ; skirt
G1 X95.029 Y129.478 E10.36300 ; skirt
G1 X92.978 Y128.294 E10.38692 ; skirt
G1 X92.357 Y127.817 E10.39484 ; skirt
G1 X90.683 Y126.143 E10.41876 ; skirt
G1 X90.206 Y125.522 E10.42667 ; skirt
G1 X89.022 Y123.471 E10.45060 ; skirt
G1 X88.722 Y122.748 E10.45851 ; skirt
G1 X88.328 Y121.575 E10.47100 ; skirt
G1 X78.760 Y85.058 E10.85240 ; skirt
G1 X78.541 Y83.943 E10.86388 ; skirt
G1 X78.507 Y83.684 E10.86652 ; skirt
G1 X78.430 Y82.500 E10.87851 ; skirt
G1 X78.430 Y78.500 E10.91892 ; skirt
G1 X78.827 Y75.843 E10.94606 ; skirt
G1 X79.986 Y73.420 E10.97320 ; skirt
G1 X81.472 Y71.802 E10.99540 ; skirt
M204 S4000 ; adjust acceleration
G1 X81.792 Y72.001 F10200.000 ; move to first skirt point
M204 S5000 ; adjust acceleration
G1 X82.152 Y71.621 E11.00069 F1800.000 ; skirt
G1 X84.450 Y70.338 E11.02728 ; skirt
G1 X87.500 Y69.787 E11.05860 ; skirt
G1 X112.500 Y69.787 E11.31118 ; skirt
G1 X115.102 Y70.184 E11.33778 ; skirt
G1 X117.467 Y71.341 E11.36437 F1800.000 ; skirt
G1 X119.379 Y73.152 E11.39097 ; skirt
G1 X120.662 Y75.450 E11.41757 ; skirt
G1 X121.213 Y78.500 E11.44888 ; skirt
G1 X121.213 Y82.500 E11.48930 ; skirt
G1 X121.139 Y83.637 E11.50081 ; skirt
G1 X121.105 Y83.896 E11.50345 ; skirt
G1 X120.895 Y84.967 E11.51448 ; skirt
G1 X111.327 Y121.485 E11.89588 ; skirt
G1 X110.948 Y122.611 E11.90788 ; skirt
G1 X110.648 Y123.334 E11.91580 ; skirt
G1 X109.511 Y125.304 E11.93878 ; skirt
G1 X109.033 Y125.927 E11.94670 ; skirt
G1 X107.426 Y127.534 E11.96967 ; skirt
G1 X106.804 Y128.011 E11.97758 ; skirt
G1 X104.834 Y129.148 E12.00056 ; skirt
G1 X104.111 Y129.448 E12.00848 ; skirt
G1 X101.914 Y130.037 E12.03146 ; skirt
G1 X101.137 Y130.139 E12.03937 ; skirt
G1 X98.863 Y130.139 E12.06235 ; skirt
G1 X98.086 Y130.037 E12.07026 ; skirt
G1 X95.889 Y129.448 E12.09324 ; skirt
G1 X95.166 Y129.148 E12.10116 ; skirt
G1 X93.196 Y128.011 E12.12414 ; skirt
G1 X92.574 Y127.534 E12.13205 ; skirt
G1 X90.966 Y125.926 E12.15503 ; skirt
G1 X90.489 Y125.304 E12.16294 ; skirt
G1 X89.352 Y123.334 E12.18592 ; skirt
G1 X89.052 Y122.611 E12.19384 ; skirt
G1 X88.673 Y121.485 E12.20584 ; skirt
G1 X79.105 Y84.967 E12.58724 ; skirt
G1 X78.895 Y83.897 E12.59827 ; skirt
G1 X78.861 Y83.637 E12.60091 ; skirt
G1 X78.787 Y82.500 E12.61242 ; skirt
G1 X78.787 Y78.500 E12.65284 ; skirt
G1 X79.184 Y75.898 E12.67943 ; skirt
G1 X80.341 Y73.533 E12.70603 ; skirt
G1 X81.740 Y72.056 E12.72659 ; skirt
M204 S4000 ; adjust acceleration
G1 X82.055 Y72.259 F10200.000 ; move to first skirt point
M204 S5000 ; adjust acceleration
G1 X82.499 Y71.806 E12.73299 F1800.000 ; skirt
G1 X84.777 Y70.600 E12.75904 ; skirt
G1 X87.500 Y70.144 E12.78693 ; skirt
G1 X112.500 Y70.144 E13.03951 ; skirt
G1 X115.047 Y70.541 E13.06556 ; skirt
G1 X117.351 Y71.696 E13.09160 F1800.000 ; skirt
G1 X119.194 Y73.499 E13.11765 ; skirt
G1 X120.400 Y75.777 E13.14369 ; skirt
G1 X120.856 Y78.500 E13.17158 ; skirt
G1 X120.856 Y82.500 E13.21199 ; skirt
G1 X120.785 Y83.591 E13.22304 ; skirt
G1 X120.751 Y83.849 E13.22567 ; skirt
G1 X120.549 Y84.877 E13.23625 ; skirt
G1 X110.981 Y121.394 E13.61765 ; skirt
G1 X110.618 Y122.474 E13.62916 ; skirt
G1 X110.318 Y123.198 E13.63708 ; skirt
G1 X109.227 Y125.087 E13.65912 ; skirt
G1 X108.750 Y125.709 E13.66704 ; skirt
G1 X107.208 Y127.251 E13.68907 ; skirt
G1 X106.587 Y127.727 E13.69698 ; skirt
G1 X104.698 Y128.818 E13.71902 ; skirt
G1 X103.974 Y129.118 E13.72693 ; skirt
G1 X101.867 Y129.682 E13.74897 ; skirt
G1 X101.091 Y129.785 E13.75688 ; skirt
G1 X98.909 Y129.785 E13.77892 ; skirt
G1 X98.133 Y129.682 E13.78684 ; skirt
G1 X96.026 Y129.118 E13.80888 ; skirt
G1 X95.302 Y128.818 E13.81679 ; skirt
G1 X93.413 Y127.727 E13.83883 ; skirt
G1 X92.792 Y127.251 E13.84674 ; skirt
G1 X91.249 Y125.708 E13.86878 ; skirt
G1 X90.773 Y125.087 E13.87669 ; skirt
G1 X89.682 Y123.198 E13.89873 ; skirt
G1 X89.382 Y122.474 E13.90664 ; skirt
G1 X89.019 Y121.394 E13.91815 ; skirt
G1 X79.451 Y84.877 E14.29956 ; skirt
G1 X79.249 Y83.850 E14.31013 ; skirt
G1 X79.215 Y83.591 E14.31277 ; skirt
G1 X79.144 Y82.500 E14.32381 ; skirt
G1 X79.144 Y78.500 E14.36423 ; skirt
G1 X79.541 Y75.953 E14.39027 ; skirt
G1 X80.696 Y73.649 E14.41631 ; skirt
G1 X82.003 Y72.313 E14.43519 ; skirt
M204 S4000 ; adjust acceleration
G1 X82.313 Y72.520 F10200.000 ; move to first skirt point
M204 S5000 ; adjust acceleration
G1 X82.845 Y71.995 E14.44275 F1800.000 ; skirt
G1 X85.102 Y70.869 E14.46823 ; skirt
G1 X87.500 Y70.501 E14.49274 ; skirt
G1 X112.500 Y70.501 E14.74532 ; skirt
G1 X114.990 Y70.898 E14.77080 ; skirt
G1 X117.233 Y72.051 E14.79628 F1800.000 ; skirt
G1 X119.005 Y73.845 E14.82176 ; skirt
G1 X120.131 Y76.102 E14.84723 ; skirt
G1 X120.499 Y78.500 E14.87175 ; skirt
G1 X120.499 Y82.500 E14.91216 ; skirt
G1 X120.431 Y83.544 E14.92273 ; skirt
G1 X120.397 Y83.803 E14.92537 ; skirt
G1 X120.204 Y84.786 E14.93549 ; skirt
G1 X110.636 Y121.304 E15.31690 ; skirt
G1 X110.288 Y122.338 E15.32791 ; skirt
G1 X109.988 Y123.061 E15.33583 ; skirt
G1 X108.944 Y124.870 E15.35692 ; skirt
G1 X108.467 Y125.492 E15.36485 ; skirt
G1 X106.991 Y126.967 E15.38593 ; skirt
G1 X106.370 Y127.444 E15.39385 ; skirt
G1 X104.561 Y128.488 E15.41494 ; skirt
G1 X103.838 Y128.788 E15.42286 ; skirt
G1 X101.821 Y129.328 E15.44395 ; skirt
G1 X101.044 Y129.431 E15.45187 ; skirt
G1 X98.956 Y129.431 E15.47296 ; skirt
G1 X98.179 Y129.328 E15.48088 ; skirt
G1 X96.162 Y128.788 E15.50197 ; skirt
G1 X95.439 Y128.488 E15.50989 ; skirt
G1 X93.630 Y127.444 E15.53098 ; skirt
G1 X93.009 Y126.967 E15.53890 ; skirt
G1 X91.533 Y125.491 E15.55999 ; skirt
G1 X91.056 Y124.870 E15.56791 ; skirt
G1 X90.012 Y123.061 E15.58900 ; skirt
G1 X89.712 Y122.338 E15.59692 ; skirt
G1 X89.364 Y121.304 E15.60794 ; skirt
G1 X79.796 Y84.786 E15.98934 ; skirt
G1 X79.603 Y83.803 E15.99946 ; skirt
G1 X79.569 Y83.544 E16.00210 ; skirt
G1 X79.501 Y82.500 E16.01267 ; skirt
G1 X79.501 Y78.500 E16.05308 ; skirt
G1 X79.898 Y76.010 E16.07856 ; skirt
G1 X81.051 Y73.767 E16.10404 ; skirt
G1 X82.260 Y72.573 E16.12121 ; skirt
M204 S4000 ; adjust acceleration
G1 X82.565 Y72.785 F10200.000 ; move to first skirt point
M204 S5000 ; adjust acceleration
G1 X83.191 Y72.189 E16.12993 F1800.000 ; skirt
G1 X85.423 Y71.145 E16.15483 ; skirt
G1 X87.500 Y70.858 E16.17601 ; skirt
G1 X112.500 Y70.858 E16.42860 ; skirt
G1 X114.932 Y71.255 E16.45349 ; skirt
G1 X117.111 Y72.406 E16.47839 F1800.000 ; skirt
G1 X118.811 Y74.191 E16.50329 ; skirt
G1 X119.855 Y76.423 E16.52819 ; skirt
G1 X120.142 Y78.500 E16.54937 ; skirt
G1 X120.142 Y82.500 E16.58979 ; skirt
G1 X120.077 Y83.497 E16.59988 ; skirt
G1 X120.043 Y83.756 E16.60252 ; skirt
G1 X119.858 Y84.696 E16.61219 ; skirt
G1 X110.290 Y121.213 E16.99360 ; skirt
G1 X109.958 Y122.201 E17.00412 ; skirt
G1 X109.658 Y122.924 E17.01204 ; skirt
G1 X108.661 Y124.652 E17.03219 ; skirt
G1 X108.183 Y125.274 E17.04012 ; skirt
G1 X106.773 Y126.684 E17.06026 ; skirt
G1 X106.152 Y127.161 E17.06817 ; skirt
G1 X104.424 Y128.158 E17.08833 ; skirt
G1 X103.701 Y128.458 E17.09624 ; skirt
G1 X101.774 Y128.974 E17.11640 ; skirt
G1 X100.998 Y129.077 E17.12431 ; skirt
G1 X99.002 Y129.077 E17.14447 ; skirt
G1 X98.226 Y128.974 E17.15238 ; skirt
G1 X96.299 Y128.458 E17.17253 ; skirt
